Newaita-dark/actions/32/draw-triangle1.svg

<svg height="32" viewBox="0 0 32 32" width="32" xmlns="http://www.w3.org/2000/svg"><path d="m5.300781 16.191406c.019531.449219.269531.855469.660157 1.078125l18.523437 10.585938c.40625.230469.910156.230469 1.3125-.003907.40625-.238281.65625-.671874.65625-1.140624v-21.167969c0-.46875-.25-.902344-.65625-1.140625-.402344-.234375-.90625-.234375-1.3125-.003906l-18.523437 10.585937c-.429688.246094-.683594.710937-.660157 1.207031zm3.96875-.066406 14.550781-8.3125v16.628906zm0 0" fill="#e0e0e0"/></svg>

<?xml version="1.0" encoding="UTF-8"?>
<svg xmlns="http://www.w3.org/2000/svg" xmlns:xlink="http://www.w3.org/1999/xlink" width="32px" height="32px" viewBox="0 0 32 32" version="1.1">
<g id="surface1">
<path style=" stroke:none;fill-rule:nonzero;fill:rgb(87.843138%,87.843138%,87.843138%);fill-opacity:1;" d="M 5.300781 16.191406 C 5.320312 16.640625 5.570312 17.046875 5.960938 17.269531 L 24.484375 27.855469 C 24.890625 28.085938 25.394531 28.085938 25.796875 27.851562 C 26.203125 27.613281 26.453125 27.179688 26.453125 26.710938 L 26.453125 5.542969 C 26.453125 5.074219 26.203125 4.640625 25.796875 4.402344 C 25.394531 4.167969 24.890625 4.167969 24.484375 4.398438 L 5.960938 14.984375 C 5.53125 15.230469 5.277344 15.695312 5.300781 16.191406 Z M 9.269531 16.125 L 23.820312 7.8125 L 23.820312 24.441406 Z M 9.269531 16.125 "/>
</g>
</svg>
